src/epub/images/titlepage.svg

<?xml version="1.0" encoding="utf-8"?>
<svg xmlns="http://www.w3.org/2000/svg" xmlns:svg="http://www.w3.org/2000/svg" version="1.1" viewBox="0 0 1400 440">
	<title>The titlepage for the Standard Ebooks edition of The Wind in the Willows, by Kenneth Grahame</title>
	<g>
		<path d="m 370.37573,68.245613 18.33918,0 0,61.754387 17.59064,0 0,-61.754387 18.33918,0 0,-15.438597 -54.269,0 0,15.438597 z"/>
		<path d="m 453.57017,99.029239 24.88889,0 0,30.970761 17.59064,0 0,-77.192984 -17.59064,0 0,30.783626 -24.88889,0 0,-30.783626 -17.59064,0 0,77.192984 17.59064,0 0,-30.970761 z"/>
		<path d="m 556.4152,52.807016 -44.16374,0 0,77.192984 44.16374,0 0,-15.4386 -26.57309,0 0,-15.532161 25.45029,0 0,-15.438597 -25.45029,0 0,-15.345029 26.57309,0 0,-15.438597 z"/>
		<path d="m 653.29971,130 19.46199,0 21.9883,-77.192984 -19.46199,0 -13.19298,52.959064 -0.46784,0 -14.03508,-52.959064 -13.28655,0 -14.03509,52.959064 -0.46784,0 -13.19298,-52.959064 -19.55556,0 L 609.0424,130 628.59795,130 640.94883,86.678362 653.29971,130 Z"/>
		<path d="m 721.55995,52.807016 -17.59064,0 0,77.192984 17.59064,0 0,-77.192984 z"/>
		<path d="m 755.43422,82.093566 0.18714,0 L 786.31142,130 l 17.59064,0 0,-77.192984 -17.59064,0 0,47.906434 -0.18714,0 -30.69006,-47.906434 -17.59064,0 0,77.192984 17.59064,0 0,-47.906434 z"/>
		<path d="m 820.14619,52.807016 0,77.192984 22.36257,0 c 21.23977,0 38.92398,-16.09357 38.92398,-38.643276 0,-22.45614 -17.77778,-38.549708 -38.92398,-38.549708 l -22.36257,0 z m 17.59064,61.473684 0,-45.754385 2.71345,0 c 13.09942,0 21.98831,10.011696 21.98831,22.923977 -0.0936,12.912278 -8.98246,22.830408 -21.98831,22.830408 l -2.71345,0 z"/>
		<path d="m 942.40059,52.807016 -17.59064,0 0,77.192984 17.59064,0 0,-77.192984 z"/>
		<path d="m 976.27486,82.093566 0.18713,0 L 1007.1521,130 l 17.5906,0 0,-77.192984 -17.5906,0 0,47.906434 -0.1872,0 -30.69004,-47.906434 -17.59064,0 0,77.192984 17.59064,0 0,-47.906434 z"/>
	</g>
	<g>
		<path d="m 333.1864,168.24561 18.33918,0 0,61.75439 17.59064,0 0,-61.75439 18.33918,0 0,-15.43859 -54.269,0 0,15.43859 z"/>
		<path d="m 416.38084,199.02924 24.88889,0 0,30.97076 17.59065,0 0,-77.19298 -17.59065,0 0,30.78362 -24.88889,0 0,-30.78362 -17.59064,0 0,77.19298 17.59064,0 0,-30.97076 z"/>
		<path d="m 519.22588,152.80702 -44.16375,0 0,77.19298 44.16375,0 0,-15.4386 -26.5731,0 0,-15.53216 25.45029,0 0,-15.4386 -25.45029,0 0,-15.34503 26.5731,0 0,-15.43859 z"/>
		<path d="m 616.11038,230 19.46199,0 21.9883,-77.19298 -19.46199,0 -13.19298,52.95906 -0.46783,0 -14.03509,-52.95906 -13.28655,0 -14.03509,52.95906 -0.46784,0 -13.19298,-52.95906 -19.55556,0 L 571.85307,230 591.40862,230 603.7595,186.67836 616.11038,230 Z"/>
		<path d="m 684.37063,152.80702 -17.59065,0 0,77.19298 17.59065,0 0,-77.19298 z"/>
		<path d="m 718.24489,152.80702 -17.59064,0 0,77.19298 44.16374,0 0,-15.4386 -26.5731,0 0,-61.75438 z"/>
		<path d="m 776.05923,152.80702 -17.59065,0 0,77.19298 44.16375,0 0,-15.4386 -26.5731,0 0,-61.75438 z"/>
		<path d="m 812.82089,191.35672 c 0,22.54971 16.09357,40.04679 38.92398,40.04679 22.17544,0 38.83041,-17.49708 38.83041,-40.04679 0,-22.5497 -17.40351,-39.95321 -38.83041,-39.95321 -21.23977,0 -38.92398,17.40351 -38.92398,39.95321 z m 18.99416,0 c 0,-11.50877 6.36257,-23.01754 19.92982,-23.01754 13.66082,0 19.83626,11.50877 19.83626,23.01754 0,11.50878 -5.80117,23.01755 -19.83626,23.01755 -14.40936,0 -19.92982,-11.50877 -19.92982,-23.01755 z"/>
		<path d="m 959.64111,230 19.46199,0 21.9883,-77.19298 -19.46198,0 -13.19299,52.95906 -0.46783,0 -14.03509,-52.95906 -13.28655,0 -14.03509,52.95906 -0.46784,0 -13.19298,-52.95906 -19.55555,0 L 915.3838,230 934.93936,230 947.29023,186.67836 959.64111,230 Z"/>
		<path d="m 1038.7551,151.40351 c -12.4444,0 -25.1696,9.16959 -25.1696,23.57895 0,8.04678 5.4269,15.25146 14.6901,19.83625 9.1696,4.5848 17.4035,7.11111 17.4035,12.72515 0,7.20468 -7.2982,7.57895 -11.1345,7.57895 -8.6082,0 -18.9006,-8.70176 -18.9006,-8.70176 l -8.7953,14.78363 c 0,0 10.9474,10.19883 29.0058,10.19883 15.0644,0 29.0995,-6.45614 29.0995,-24.88889 0,-10.10526 -9.4503,-17.40351 -18.0585,-21.05263 -8.7953,-3.74269 -16.0936,-6.83041 -16.0936,-11.13451 0,-4.21052 3.1813,-6.92397 9.1696,-6.92397 7.9532,0 15.6257,5.33333 15.6257,5.33333 l 7.1111,-14.03509 c 0,0 -9.9181,-7.29824 -23.9532,-7.29824 z"/>
	</g>
	<g>
		<path d="m 348.9682,390 -26.94736,-30.45614 23.29824,-27.4386 -16,0 -19.85965,23.64913 0,-23.64913 -13.19298,0 0,57.89474 13.19298,0 0,-24.5614 21.33334,24.5614 18.17543,0 z"/>
		<path d="m 389.625,332.10526 -33.1228,0 0,57.89474 33.1228,0 0,-11.57895 -19.92982,0 0,-11.64912 19.08772,0 0,-11.57895 -19.08772,0 0,-11.50877 19.92982,0 0,-11.57895 z"/>
		<path d="m 415.40241,354.07018 0.14035,0 23.01755,35.92982 13.19298,0 0,-57.89474 -13.19298,0 0,35.92983 -0.14036,0 -23.01754,-35.92983 -13.19298,0 0,57.89474 13.19298,0 0,-35.92982 z"/>
		<path d="m 478.37939,354.07018 0.14035,0 23.01754,35.92982 13.19298,0 0,-57.89474 -13.19298,0 0,35.92983 -0.14035,0 -23.01754,-35.92983 -13.19299,0 0,57.89474 13.19299,0 0,-35.92982 z"/>
		<path d="m 561.28618,332.10526 -33.1228,0 0,57.89474 33.1228,0 0,-11.57895 -19.92982,0 0,-11.64912 19.08772,0 0,-11.57895 -19.08772,0 0,-11.50877 19.92982,0 0,-11.57895 z"/>
		<path d="m 570.22148,343.68421 13.75439,0 0,46.31579 13.19298,0 0,-46.31579 13.75439,0 0,-11.57895 -40.70176,0 0,11.57895 z"/>
		<path d="m 633.86733,366.77193 18.66667,0 0,23.22807 13.19298,0 0,-57.89474 -13.19298,0 0,23.08772 -18.66667,0 0,-23.08772 -13.19298,0 0,57.89474 13.19298,0 0,-23.22807 z"/>
		<path d="m 755.66777,357.57895 -26.73684,0 0,10.17544 13.33333,0 c 0,7.08772 -6.24561,11.15789 -12.5614,11.15789 -8.14035,0 -14.73684,-8 -14.73684,-17.82456 0,-10.03509 6.59649,-18.10526 14.73684,-18.10526 5.12281,0 9.54386,2.03508 12.91228,7.43859 l 8.63158,-9.47368 c -5.05263,-6.10526 -12.14035,-9.89474 -22.31579,-9.89474 -16.2807,0 -28.21052,13.40351 -28.21052,30.03509 0,16.5614 12.63157,29.96491 28.21052,29.96491 11.36842,0 23.57895,-6.24561 26.73684,-20.91228 l 0,-12.5614 z"/>
		<path d="m 766.43091,332.10526 0,57.89474 13.19298,0 0,-22.87719 L 797.3081,390 l 16.77193,0 -19.92982,-23.92982 c 7.08772,-2.24562 11.85965,-8.07018 11.85965,-16.77193 0,-11.36842 -8.14035,-17.19299 -18.8772,-17.19299 l -20.70175,0 z m 13.19298,25.68421 0,-15.15789 1.54386,0 c 4.98246,0 10.94737,0.35088 10.94737,7.57895 0,7.22807 -5.96491,7.57894 -10.94737,7.57894 l -1.54386,0 z"/>
		<path d="m 851.13596,332.10526 -12.21052,0 L 815.55702,390 l 14.17543,0 4.28071,-11.57895 22.03508,0 4.28071,11.57895 14.17543,0 -23.36842,-57.89474 z m 0.42106,34.73685 -13.05264,0 6.45614,-16.84211 0.14036,0 6.45614,16.84211 z"/>
		<path d="m 894.88705,366.77193 18.66666,0 0,23.22807 13.19298,0 0,-57.89474 -13.19298,0 0,23.08772 -18.66666,0 0,-23.08772 -13.19299,0 0,57.89474 13.19299,0 0,-23.22807 z"/>
		<path d="m 969.55155,332.10526 -12.21053,0 L 933.9726,390 l 14.17544,0 4.2807,-11.57895 22.03509,0 4.2807,11.57895 14.17544,0 -23.36842,-57.89474 z m 0.42105,34.73685 -13.05263,0 6.45614,-16.84211 0.14035,0 6.45614,16.84211 z"/>
		<path d="m 1047.9693,390 13.193,0 -5.193,-57.89474 -14.0351,0 -12.8421,33.40351 -12.8421,-33.40351 -14.0351,0 -5.19297,57.89474 13.19297,0 2.7369,-34.31579 0.3508,0 11.8597,33.96491 7.8596,0 11.8597,-33.96491 0.3509,0 2.7368,34.31579 z"/>
		<path d="m 1104.5702,332.10526 -33.1228,0 0,57.89474 33.1228,0 0,-11.57895 -19.9299,0 0,-11.64912 19.0878,0 0,-11.57895 -19.0878,0 0,-11.50877 19.9299,0 0,-11.57895 z"/>
	</g>
</svg>

<?xml version="1.0" encoding="utf-8"?>
<svg xmlns="http://www.w3.org/2000/svg" xmlns:svg="http://www.w3.org/2000/svg" version="1.1" viewBox="0 0 1400 440">
	<title>The titlepage for the Standard Ebooks edition of The Wind in the Willows, by Kenneth Grahame</title>
	<g aria-label="THE WIND IN">
		<path d="m 370.37573,68.245613 h 18.33918 V 130 h 17.59064 V 68.245613 h 18.33918 V 52.807016 h -54.269 z"/>
		<path d="m 453.57017,99.029239 h 24.88889 V 130 H 496.0497 V 52.807016 H 478.45906 V 83.590642 H 453.57017 V 52.807016 H 435.97953 V 130 h 17.59064 z"/>
		<path d="M 556.4152,52.807016 H 512.25146 V 130 H 556.4152 V 114.5614 H 529.84211 V 99.029239 H 555.2924 V 83.590642 H 529.84211 V 68.245613 h 26.57309 z"/>
		<path d="M 653.29971,130 H 672.7617 L 694.75,52.807016 h -19.46199 l -13.19298,52.959064 h -0.46784 L 647.59211,52.807016 h -13.28655 l -14.03509,52.959064 h -0.46784 L 606.60965,52.807016 H 587.05409 L 609.0424,130 h 19.55555 l 12.35088,-43.321638 z"/>
		<path d="M 721.55995,52.807016 H 703.96931 V 130 h 17.59064 z"/>
		<path d="m 755.43422,82.093566 h 0.18714 L 786.31142,130 h 17.59064 V 52.807016 h -17.59064 v 47.906434 h -0.18714 L 755.43422,52.807016 H 737.84358 V 130 h 17.59064 z"/>
		<path d="M 820.14619,52.807016 V 130 h 22.36257 c 21.23977,0 38.92398,-16.09357 38.92398,-38.643276 0,-22.45614 -17.77778,-38.549708 -38.92398,-38.549708 z M 837.73683,114.2807 V 68.526315 h 2.71345 c 13.09942,0 21.98831,10.011696 21.98831,22.923977 -0.0936,12.912278 -8.98246,22.830408 -21.98831,22.830408 z"/>
		<path d="M 942.40059,52.807016 H 924.80995 V 130 h 17.59064 z"/>
		<path d="m 976.27486,82.093566 h 0.18713 L 1007.1521,130 h 17.5906 V 52.807016 h -17.5906 v 47.906434 h -0.1872 L 976.27486,52.807016 H 958.68422 V 130 h 17.59064 z"/>
	</g>
	<g aria-label="THE WILLOWS">
		<path d="m 333.1864,168.24561 h 18.33918 V 230 h 17.59064 v -61.75439 h 18.33918 v -15.43859 h -54.269 z"/>
		<path d="m 416.38084,199.02924 h 24.88889 V 230 h 17.59065 v -77.19298 h -17.59065 v 30.78362 H 416.38084 V 152.80702 H 398.7902 V 230 h 17.59064 z"/>
		<path d="M 519.22588,152.80702 H 475.06213 V 230 h 44.16375 v -15.4386 h -26.5731 v -15.53216 h 25.45029 v -15.4386 h -25.45029 v -15.34503 h 26.5731 z"/>
		<path d="m 616.11038,230 h 19.46199 l 21.9883,-77.19298 h -19.46199 l -13.19298,52.95906 h -0.46783 l -14.03509,-52.95906 h -13.28655 l -14.03509,52.95906 H 582.6133 L 569.42032,152.80702 H 549.86476 L 571.85307,230 h 19.55555 l 12.35088,-43.32164 z"/>
		<path d="M 684.37063,152.80702 H 666.77998 V 230 h 17.59065 z"/>
		<path d="M 718.24489,152.80702 H 700.65425 V 230 h 44.16374 v -15.4386 h -26.5731 z"/>
		<path d="M 776.05923,152.80702 H 758.46858 V 230 h 44.16375 v -15.4386 h -26.5731 z"/>
		<path d="m 812.82089,191.35672 c 0,22.54971 16.09357,40.04679 38.92398,40.04679 22.17544,0 38.83041,-17.49708 38.83041,-40.04679 0,-22.5497 -17.40351,-39.95321 -38.83041,-39.95321 -21.23977,0 -38.92398,17.40351 -38.92398,39.95321 z m 18.99416,0 c 0,-11.50877 6.36257,-23.01754 19.92982,-23.01754 13.66082,0 19.83626,11.50877 19.83626,23.01754 0,11.50878 -5.80117,23.01755 -19.83626,23.01755 -14.40936,0 -19.92982,-11.50877 -19.92982,-23.01755 z"/>
		<path d="m 959.64111,230 h 19.46199 l 21.9883,-77.19298 h -19.46198 l -13.19299,52.95906 h -0.46783 l -14.03509,-52.95906 h -13.28655 l -14.03509,52.95906 h -0.46784 L 912.95105,152.80702 H 893.3955 L 915.3838,230 h 19.55556 l 12.35087,-43.32164 z"/>
		<path d="m 1038.7551,151.40351 c -12.4444,0 -25.1696,9.16959 -25.1696,23.57895 0,8.04678 5.4269,15.25146 14.6901,19.83625 9.1696,4.5848 17.4035,7.11111 17.4035,12.72515 0,7.20468 -7.2982,7.57895 -11.1345,7.57895 -8.6082,0 -18.9006,-8.70176 -18.9006,-8.70176 l -8.7953,14.78363 c 0,0 10.9474,10.19883 29.0058,10.19883 15.0644,0 29.0995,-6.45614 29.0995,-24.88889 0,-10.10526 -9.4503,-17.40351 -18.0585,-21.05263 -8.7953,-3.74269 -16.0936,-6.83041 -16.0936,-11.13451 0,-4.21052 3.1813,-6.92397 9.1696,-6.92397 7.9532,0 15.6257,5.33333 15.6257,5.33333 l 7.1111,-14.03509 c 0,0 -9.9181,-7.29824 -23.9532,-7.29824 z"/>
	</g>
	<g aria-label="KENNETH GRAHAME">
		<path d="m 348.9682,390 -26.94736,-30.45614 23.29824,-27.4386 h -16 l -19.85965,23.64913 V 332.10526 H 296.26645 V 390 h 13.19298 V 365.4386 L 330.79277,390 Z"/>
		<path d="M 389.625,332.10526 H 356.5022 V 390 H 389.625 V 378.42105 H 369.69518 V 366.77193 H 388.7829 V 355.19298 H 369.69518 V 343.68421 H 389.625 Z"/>
		<path d="m 415.40241,354.07018 h 0.14035 L 438.56031,390 h 13.19298 v -57.89474 h -13.19298 v 35.92983 h -0.14036 L 415.40241,332.10526 H 402.20943 V 390 h 13.19298 z"/>
		<path d="m 478.37939,354.07018 h 0.14035 L 501.53728,390 h 13.19298 v -57.89474 h -13.19298 v 35.92983 h -0.14035 L 478.37939,332.10526 H 465.1864 V 390 h 13.19299 z"/>
		<path d="m 561.28618,332.10526 h -33.1228 V 390 h 33.1228 v -11.57895 h -19.92982 v -11.64912 h 19.08772 v -11.57895 h -19.08772 v -11.50877 h 19.92982 z"/>
		<path d="m 570.22148,343.68421 h 13.75439 V 390 h 13.19298 v -46.31579 h 13.75439 v -11.57895 h -40.70176 z"/>
		<path d="M 633.86733,366.77193 H 652.534 V 390 h 13.19298 V 332.10526 H 652.534 v 23.08772 H 633.86733 V 332.10526 H 620.67435 V 390 h 13.19298 z"/>
		<path d="m 755.66777,357.57895 h -26.73684 v 10.17544 h 13.33333 c 0,7.08772 -6.24561,11.15789 -12.5614,11.15789 -8.14035,0 -14.73684,-8 -14.73684,-17.82456 0,-10.03509 6.59649,-18.10526 14.73684,-18.10526 5.12281,0 9.54386,2.03508 12.91228,7.43859 l 8.63158,-9.47368 c -5.05263,-6.10526 -12.14035,-9.89474 -22.31579,-9.89474 -16.2807,0 -28.21052,13.40351 -28.21052,30.03509 0,16.5614 12.63157,29.96491 28.21052,29.96491 11.36842,0 23.57895,-6.24561 26.73684,-20.91228 z"/>
		<path d="M 766.43091,332.10526 V 390 h 13.19298 V 367.12281 L 797.3081,390 h 16.77193 l -19.92982,-23.92982 c 7.08772,-2.24562 11.85965,-8.07018 11.85965,-16.77193 0,-11.36842 -8.14035,-17.19299 -18.8772,-17.19299 z m 13.19298,25.68421 v -15.15789 h 1.54386 c 4.98246,0 10.94737,0.35088 10.94737,7.57895 0,7.22807 -5.96491,7.57894 -10.94737,7.57894 z"/>
		<path d="M 851.13596,332.10526 H 838.92544 L 815.55702,390 h 14.17543 l 4.28071,-11.57895 h 22.03508 L 860.32895,390 h 14.17543 z m 0.42106,34.73685 H 838.50438 L 844.96052,350 h 0.14036 z"/>
		<path d="m 894.88705,366.77193 h 18.66666 V 390 h 13.19298 v -57.89474 h -13.19298 v 23.08772 H 894.88705 V 332.10526 H 881.69406 V 390 h 13.19299 z"/>
		<path d="M 969.55155,332.10526 H 957.34102 L 933.9726,390 h 14.17544 l 4.2807,-11.57895 h 22.03509 L 978.74453,390 h 14.17544 z m 0.42105,34.73685 H 956.91997 L 963.37611,350 h 0.14035 z"/>
		<path d="m 1047.9693,390 h 13.193 l -5.193,-57.89474 h -14.0351 l -12.8421,33.40351 -12.8421,-33.40351 h -14.0351 L 997.02193,390 h 13.19297 l 2.7369,-34.31579 h 0.3508 l 11.8597,33.96491 h 7.8596 l 11.8597,-33.96491 h 0.3509 z"/>
		<path d="m 1104.5702,332.10526 h -33.1228 V 390 h 33.1228 v -11.57895 h -19.9299 v -11.64912 h 19.0878 v -11.57895 h -19.0878 v -11.50877 h 19.9299 z"/>
	</g>
</svg>
